X: 10
T: Toss The Feathers
Z: ArtemisFowltheSecond
S: https://thesession.org/tunes/138#setting30387
R: reel
M: 4/4
L: 1/8
K: Dmix
|:D2ED ADED| ABcA GEGE|D2ED ADED|AddB cAGE|
|(3DDD ED ADED|ABcA GEE2|1cABG A2(3ABc|d2ed cAGE:|
|2cABG A2(3ABc|d2ed cAGB||:Add2 Add2| Adde dcde|
|eaag a3g|eaag aged|efg/f/e afg/f/e|f2ed dcAB|
|1cABG A2(3ABc|d2ed cAGB:|2cABG A2(3ABc|d2ed cAGE|
